X: 675
T: Jack of Diamonds
B: jims roots
M:C|
L:1/8
Q: 1/4=100
K:A
V:1 
(3efg|"A"a2A2 ABcA|A,CEG ABcA|"E"dcBA GABG|EFGB ef (3efg|
      "A"a2A2 ABcA|EFAB A2 FD|"E"EFGA Bcea|feBc "A"A2z2:|
|:cB|"A"(3cde ef edcA|"D"dced faed|"A"cedf ecAc|"E"BAGF EDCB,|
"A"(3A,B,C (3EFG AEAc|"D"BFBc dfec|"E"egbe agaf|ecBG "A"A2:||
% abcbook-tune_id 6298c25d1765268c36d8cbd5


% abcbook-boost 0
% abcbook-tablature 
% abcbook-transpose 
% abcbook-lastupdated 1654178399059
% abcbook-soundfonts 
% abcbook-repeats 1


